dist/buttons/shop.svg

<svg width="80" height="80" viewBox="0 0 80 80" fill="none" xmlns="http://www.w3.org/2000/svg">
<path d="M21.2121 55L23.8082 29.2857H58.1918L60.7879 55H21.2121Z" stroke="#FFBB36" stroke-width="4"/>
<path fill-rule="evenodd" clip-rule="evenodd" d="M37 22H44C44.5523 22 45 22.4477 45 23V30.0714V31.6429V35.6429H49V31.6429V23C49 20.2386 46.7614 18 44 18H37C34.2386 18 32 20.2386 32 23V31.6429V35.6429H36V31.6429V30.0714V23C36 22.4477 36.4477 22 37 22Z" fill="#FFBB36"/>
</svg>

<svg xmlns="http://www.w3.org/2000/svg" width="80" height="80" fill="none"><path stroke="#FFBB36" stroke-width="4" d="m21.212 55 2.596-25.714h34.384L60.788 55z"/><path fill="#FFBB36" fill-rule="evenodd" d="M37 22h7a1 1 0 0 1 1 1v12.643h4V23a5 5 0 0 0-5-5h-7a5 5 0 0 0-5 5v12.643h4V23a1 1 0 0 1 1-1" clip-rule="evenodd"/></svg>
